flaticon/science/flask-11.svg

<svg xmlns="http://www.w3.org/2000/svg" width="32" height="32" viewBox="0 0 24 24">
    <path d="M 21.835938 21.359375 L 19.195312 15.960938 L 19.195312 7.148438 C 19.882812 6.96875 20.394531 6.34375 20.394531 5.601562 C 20.394531 4.71875 19.675781 4 18.792969 4 L 15.996094 4 L 15.996094 3.199219 C 16.875 3.199219 17.59375 2.480469 17.59375 1.601562 C 17.59375 0.71875 16.875 0 15.996094 0 L 7.996094 0 C 7.113281 0 6.394531 0.71875 6.394531 1.601562 C 6.394531 2.480469 7.113281 3.199219 7.996094 3.199219 L 7.996094 9.519531 L 2.195312 21.398438 C 1.914062 21.960938 1.953125 22.640625 2.316406 23.160156 C 2.675781 23.679688 3.234375 24 3.875 24 L 20.15625 24 C 20.792969 24 21.355469 23.679688 21.714844 23.121094 C 22.035156 22.601562 22.074219 21.921875 21.835938 21.359375 Z M 16.414062 23.199219 C 15.304688 23.1875 14.433594 22.3125 14.433594 21.199219 L 14.433594 15.761719 C 14.433594 15.691406 14.421875 15.632812 14.394531 15.578125 L 14.394531 7.199219 L 18.394531 7.199219 L 18.394531 21.199219 C 18.394531 22.3125 17.523438 23.1875 16.414062 23.199219 Z M 19.59375 5.601562 C 19.59375 6.039062 19.234375 6.398438 18.792969 6.398438 L 13.996094 6.398438 C 13.554688 6.398438 13.195312 6.039062 13.195312 5.601562 C 13.195312 5.160156 13.554688 4.800781 13.996094 4.800781 L 18.792969 4.800781 C 19.234375 4.800781 19.59375 5.160156 19.59375 5.601562 Z M 7.195312 1.601562 C 7.195312 1.160156 7.554688 0.800781 7.996094 0.800781 L 15.996094 0.800781 C 16.433594 0.800781 16.792969 1.160156 16.792969 1.601562 C 16.792969 2.039062 16.433594 2.398438 15.996094 2.398438 L 7.996094 2.398438 C 7.554688 2.398438 7.195312 2.039062 7.195312 1.601562 Z M 8.753906 9.761719 C 8.792969 9.71875 8.792969 9.679688 8.792969 9.601562 L 8.792969 3.199219 L 15.234375 3.199219 L 15.234375 4 L 13.996094 4 C 13.113281 4 12.394531 4.71875 12.394531 5.601562 C 12.394531 6.300781 12.851562 6.898438 13.480469 7.113281 C 13.519531 7.128906 13.554688 7.140625 13.59375 7.148438 L 13.59375 14.960938 C 13.292969 14.734375 12.996094 14.480469 12.714844 14.199219 C 11.210938 12.695312 8.855469 12.394531 7.015625 13.300781 Z M 3.875 23.199219 C 3.476562 23.199219 3.15625 23.039062 2.953125 22.71875 C 2.753906 22.398438 2.714844 22.039062 2.875 21.71875 L 6.316406 14.71875 C 7.878906 13.199219 10.59375 13.242188 12.15625 14.761719 C 12.582031 15.1875 13.089844 15.617188 13.59375 15.933594 L 13.59375 21.199219 C 13.59375 21.988281 13.910156 22.695312 14.425781 23.199219 Z M 21.035156 22.71875 C 20.835938 23.039062 20.515625 23.199219 20.15625 23.199219 L 18.363281 23.199219 C 18.742188 22.828125 19.011719 22.347656 19.128906 21.804688 C 19.132812 21.796875 19.136719 21.785156 19.136719 21.773438 C 19.140625 21.753906 19.144531 21.730469 19.148438 21.710938 C 19.152344 21.683594 19.160156 21.65625 19.164062 21.628906 C 19.164062 21.621094 19.164062 21.613281 19.164062 21.605469 C 19.171875 21.566406 19.175781 21.527344 19.179688 21.488281 C 19.179688 21.484375 19.179688 21.476562 19.183594 21.46875 C 19.1875 21.429688 19.1875 21.386719 19.191406 21.347656 C 19.195312 21.296875 19.195312 21.25 19.195312 21.199219 L 19.195312 17.800781 L 21.113281 21.71875 C 21.273438 22.039062 21.234375 22.398438 21.035156 22.71875 Z M 21.035156 22.71875"/>
    <path d="M17.195312 8.800781L15.59375 8.800781C15.355469 8.800781 15.195312 8.960938 15.195312 9.199219 15.195312 9.441406 15.355469 9.601562 15.59375 9.601562L17.195312 9.601562C17.433594 9.601562 17.59375 9.441406 17.59375 9.199219 17.59375 8.960938 17.433594 8.800781 17.195312 8.800781zM15.59375 11.199219L15.996094 11.199219C16.234375 11.199219 16.394531 11.039062 16.394531 10.800781 16.394531 10.558594 16.234375 10.398438 15.996094 10.398438L15.59375 10.398438C15.355469 10.398438 15.195312 10.558594 15.195312 10.800781 15.195312 11.039062 15.355469 11.199219 15.59375 11.199219zM17.195312 12L15.59375 12C15.355469 12 15.195312 12.160156 15.195312 12.398438 15.195312 12.640625 15.355469 12.800781 15.59375 12.800781L17.195312 12.800781C17.433594 12.800781 17.59375 12.640625 17.59375 12.398438 17.59375 12.160156 17.433594 12 17.195312 12zM15.59375 14.398438L15.996094 14.398438C16.234375 14.398438 16.394531 14.238281 16.394531 14 16.394531 13.761719 16.234375 13.601562 15.996094 13.601562L15.59375 13.601562C15.355469 13.601562 15.195312 13.761719 15.195312 14 15.195312 14.238281 15.355469 14.398438 15.59375 14.398438zM17.195312 15.199219L15.59375 15.199219C15.355469 15.199219 15.195312 15.359375 15.195312 15.601562 15.195312 15.839844 15.355469 16 15.59375 16L17.195312 16C17.433594 16 17.59375 15.839844 17.59375 15.601562 17.59375 15.359375 17.433594 15.199219 17.195312 15.199219zM15.996094 16.800781L15.59375 16.800781C15.355469 16.800781 15.195312 16.960938 15.195312 17.199219 15.195312 17.441406 15.355469 17.601562 15.59375 17.601562L15.996094 17.601562C16.234375 17.601562 16.394531 17.441406 16.394531 17.199219 16.394531 16.960938 16.234375 16.800781 15.996094 16.800781zM15.996094 16.800781"/>
</svg>

<svg xmlns="http://www.w3.org/2000/svg" width="32" height="32" viewBox="0 0 24 24">
    <path d="M21.836 21.36l-2.64-5.4V7.149c.687-.18 1.199-.804 1.199-1.546 0-.883-.72-1.602-1.602-1.602h-2.797v-.8c.879 0 1.598-.72 1.598-1.598C17.594.719 16.875 0 15.996 0h-8c-.883 0-1.601.719-1.601 1.602 0 .878.718 1.597 1.601 1.597v6.32l-5.8 11.88a1.73 1.73 0 0 0 .12 1.761c.36.52.918.84 1.559.84h16.281c.637 0 1.2-.32 1.559-.879.32-.52.36-1.2.12-1.762zm-5.422 1.84a1.982 1.982 0 0 1-1.98-2v-5.438a.397.397 0 0 0-.04-.184V7.2h4v14a1.982 1.982 0 0 1-1.98 2zm3.18-17.598c0 .437-.36.796-.801.796h-4.797c-.441 0-.8-.359-.8-.796 0-.442.359-.801.8-.801h4.797c.441 0 .8.36.8.8zm-12.399-4c0-.442.36-.801.801-.801h8c.438 0 .797.36.797.8a.8.8 0 0 1-.797.797h-8c-.441 0-.8-.359-.8-.796zm1.559 8.16c.039-.043.039-.082.039-.16V3.199h6.441V4h-1.238c-.883 0-1.601.719-1.601 1.602a1.604 1.604 0 0 0 1.199 1.546v7.813a8.34 8.34 0 0 1-.88-.762c-1.503-1.504-3.859-1.804-5.698-.898zM3.875 23.199c-.398 0-.719-.16-.922-.48-.2-.32-.238-.68-.078-1l3.441-7c1.563-1.52 4.278-1.477 5.84.043.426.425.934.855 1.438 1.172v5.265c0 .79.316 1.496.832 2zm17.16-.48c-.2.32-.52.48-.879.48h-1.793a2.761 2.761 0 0 0 .774-1.426l.011-.062c.004-.027.012-.055.016-.082v-.024c.008-.039.012-.078.016-.117 0-.004 0-.011.004-.02.003-.038.003-.081.007-.12.004-.051.004-.098.004-.149v-3.398l1.918 3.918c.16.32.121.68-.078 1zm0 0"/>
    <path d="M17.195 8.8h-1.601c-.239 0-.399.16-.399.4 0 .241.16.402.399.402h1.601c.239 0 .399-.16.399-.403 0-.238-.16-.398-.399-.398zm0 0M15.594 11.2h.402c.238 0 .399-.16.399-.4 0-.241-.16-.402-.399-.402h-.402c-.239 0-.399.16-.399.403 0 .238.16.398.399.398zm0 0M17.195 12h-1.601c-.239 0-.399.16-.399.398 0 .243.16.403.399.403h1.601c.239 0 .399-.16.399-.403 0-.238-.16-.398-.399-.398zm0 0M15.594 14.398h.402c.238 0 .399-.16.399-.398 0-.238-.16-.398-.399-.398h-.402c-.239 0-.399.16-.399.398 0 .238.16.398.399.398zm0 0M17.195 15.2h-1.601c-.239 0-.399.16-.399.402 0 .238.16.398.399.398h1.601c.239 0 .399-.16.399-.398 0-.243-.16-.403-.399-.403zm0 0M15.996 16.8h-.402c-.239 0-.399.16-.399.4 0 .241.16.402.399.402h.402c.238 0 .399-.16.399-.403 0-.238-.16-.398-.399-.398zm0 0"/>
</svg>
